web/assets/img/functions/970_4.svg

<svg width="512" height="512" viewBox="0 0 512 512" fill="none" xmlns="http://www.w3.org/2000/svg">
    <path fill-rule="evenodd" clip-rule="evenodd"
          d="M4 76C4 70.4772 8.47715 66 14 66H498C503.523 66 508 70.4772 508 76V436C508 441.523 503.523 446 498 446H14C8.47715 446 4 441.523 4 436V76ZM24 86V426H488V86H24Z"
          fill="#282828"/>
    <path fill-rule="evenodd" clip-rule="evenodd"
          d="M183.998 278.785V392.812H203.998V278.786L284.626 359.414L298.768 345.272L218.139 264.643H332.166V244.643H218.14L298.768 164.014L284.626 149.872L203.998 230.5V116.474H183.998V230.501L103.368 149.871L89.2258 164.013L169.855 244.643H55.8281V264.643H169.856L89.2258 345.273L103.368 359.415L183.998 278.785Z"
          fill="#12A71E"/>
    <path fill-rule="evenodd" clip-rule="evenodd"
          d="M194 126C122.203 126 64 184.203 64 256C64 327.797 122.203 386 194 386C265.797 386 324 327.797 324 256C324 184.203 265.797 126 194 126ZM44 256C44 173.157 111.157 106 194 106C276.843 106 344 173.157 344 256C344 338.843 276.843 406 194 406C111.157 406 44 338.843 44 256Z"
          fill="#282828"/>
    <path fill-rule="evenodd" clip-rule="evenodd"
          d="M194 166C144.294 166 104 206.294 104 256C104 305.706 144.294 346 194 346C243.706 346 284 305.706 284 256C284 206.294 243.706 166 194 166ZM84 256C84 195.249 133.249 146 194 146C254.751 146 304 195.249 304 256C304 316.751 254.751 366 194 366C133.249 366 84 316.751 84 256Z"
          fill="#282828"/>
    <path fill-rule="evenodd" clip-rule="evenodd"
          d="M194 206C166.386 206 144 228.386 144 256C144 283.614 166.386 306 194 306C221.614 306 244 283.614 244 256C244 228.386 221.614 206 194 206ZM124 256C124 217.34 155.34 186 194 186C232.66 186 264 217.34 264 256C264 294.66 232.66 326 194 326C155.34 326 124 294.66 124 256Z"
          fill="#282828"/>
    <path fill-rule="evenodd" clip-rule="evenodd"
          d="M194 246C188.477 246 184 250.477 184 256C184 261.523 188.477 266 194 266C199.523 266 204 261.523 204 256C204 250.477 199.523 246 194 246ZM164 256C164 239.431 177.431 226 194 226C210.569 226 224 239.431 224 256C224 272.569 210.569 286 194 286C177.431 286 164 272.569 164 256Z"
          fill="#282828"/>
    <path fill-rule="evenodd" clip-rule="evenodd"
          d="M367 172C367 166.477 371.477 162 377 162H457C462.523 162 467 166.477 467 172C467 177.523 462.523 182 457 182H377C371.477 182 367 177.523 367 172Z"
          fill="#282828"/>
    <path fill-rule="evenodd" clip-rule="evenodd"
          d="M367 228C367 222.477 371.477 218 377 218H457C462.523 218 467 222.477 467 228C467 233.523 462.523 238 457 238H377C371.477 238 367 233.523 367 228Z"
          fill="#282828"/>
    <path fill-rule="evenodd" clip-rule="evenodd"
          d="M367 284C367 278.477 371.477 274 377 274H457C462.523 274 467 278.477 467 284C467 289.523 462.523 294 457 294H377C371.477 294 367 289.523 367 284Z"
          fill="#282828"/>
    <path fill-rule="evenodd" clip-rule="evenodd"
          d="M367 340C367 334.477 371.477 330 377 330H457C462.523 330 467 334.477 467 340C467 345.523 462.523 350 457 350H377C371.477 350 367 345.523 367 340Z"
          fill="#282828"/>
</svg>

<?xml version="1.0" encoding="utf-8"?>
<!-- Generator: Adobe Illustrator 28.2.0, SVG Export Plug-In . SVG Version: 6.00 Build 0)  -->
<svg version="1.1" id="Calque_1" xmlns="http://www.w3.org/2000/svg" xmlns:xlink="http://www.w3.org/1999/xlink" x="0px" y="0px"
	 viewBox="0 0 512 512" style="enable-background:new 0 0 512 512;" xml:space="preserve">
<style type="text/css">
	.st0{fill-rule:evenodd;clip-rule:evenodd;fill:#282828;}
	.st1{fill-rule:evenodd;clip-rule:evenodd;fill:#33B0DF;}
</style>
<path class="st0" d="M4,76c0-5.5,4.5-10,10-10h484c5.5,0,10,4.5,10,10v360c0,5.5-4.5,10-10,10H14c-5.5,0-10-4.5-10-10V76z M24,86
	v340h464V86H24z"/>
<path class="st1" d="M184,278.8v114h20v-114l80.6,80.6l14.1-14.1l-80.6-80.6h114v-20h-114l80.6-80.6l-14.1-14.1L204,230.5v-114h-20
	v114l-80.6-80.6L89.2,164l80.6,80.6h-114v20h114l-80.6,80.6l14.1,14.1L184,278.8z"/>
<path class="st0" d="M194,126c-71.8,0-130,58.2-130,130s58.2,130,130,130s130-58.2,130-130S265.8,126,194,126z M44,256
	c0-82.8,67.2-150,150-150s150,67.2,150,150s-67.2,150-150,150S44,338.8,44,256z"/>
<path class="st0" d="M194,166c-49.7,0-90,40.3-90,90s40.3,90,90,90s90-40.3,90-90S243.7,166,194,166z M84,256
	c0-60.8,49.2-110,110-110s110,49.2,110,110s-49.2,110-110,110S84,316.8,84,256z"/>
<path class="st0" d="M194,206c-27.6,0-50,22.4-50,50s22.4,50,50,50s50-22.4,50-50S221.6,206,194,206z M124,256c0-38.7,31.3-70,70-70
	s70,31.3,70,70s-31.3,70-70,70S124,294.7,124,256z"/>
<path class="st0" d="M194,246c-5.5,0-10,4.5-10,10c0,5.5,4.5,10,10,10s10-4.5,10-10C204,250.5,199.5,246,194,246z M164,256
	c0-16.6,13.4-30,30-30s30,13.4,30,30s-13.4,30-30,30S164,272.6,164,256z"/>
<path class="st0" d="M367,172c0-5.5,4.5-10,10-10h80c5.5,0,10,4.5,10,10s-4.5,10-10,10h-80C371.5,182,367,177.5,367,172z"/>
<path class="st0" d="M367,228c0-5.5,4.5-10,10-10h80c5.5,0,10,4.5,10,10s-4.5,10-10,10h-80C371.5,238,367,233.5,367,228z"/>
<path class="st0" d="M367,284c0-5.5,4.5-10,10-10h80c5.5,0,10,4.5,10,10s-4.5,10-10,10h-80C371.5,294,367,289.5,367,284z"/>
<path class="st0" d="M367,340c0-5.5,4.5-10,10-10h80c5.5,0,10,4.5,10,10s-4.5,10-10,10h-80C371.5,350,367,345.5,367,340z"/>
</svg>
